!!!CDT:
!!!PTL: Madrigali a cinque voci. Libro quarto
!!!PPP: Venice
!!!PPR: Amadino
!!!PDT: 1600
!!!PUB-format:
!!!RISM: I 8
!!!rime: 166
!!!AGN: Madrigal
!!!SCT: Trm0166i
!!!SCA: Trm0166i
!!!original-voices: 5
!!!extant-voices: 2
!!!complete: N
!!!final: A
!!!COM: Il Verso, Antonio
!!!OTL: Se taccio, il duol s'avanza
**kern	**text	**kern	**text
*part2	*part2	*part1	*part1
*staff2	*staff2	*staff1	*staff1
*I"Basso	*	*I"Canto	*
*I'B	*	*I'C	*
*oclefF3	*	*oclefG2	*
*clefF4	*	*clefG2	*
*k[]	*	*k[]	*
*C:	*	*C:	*
*omet(C)	*	*omet(C)	*
*M4/4	*	*M4/4	*
*met(c)	*	*met(c)	*
0r	.	1ee	Se
.	.	2ee	tac-
.	.	4ee	-cio, il
.	.	[4ff	duol
=1	=1	=1	=1
1r	.	4ff]	.
.	.	4ee	s'a-
.	.	2dd	-van-
4r	.	4cc	-za;
4A	Se	4cc	Se
4F	par-	4a	par-
4G	-lo, a-	4b	-lo, a-
=2	=2	=2	=2
8AL	-cre-	4.cc	-cre-
8GJ	.	.	.
8AL	.	.	.
8BJ	.	8dd	-sco
4c	.	4ee	l'i-
4d	-sco	4ff	.
2G	l'i-	4.gg	.
.	.	8ff	.
2A	-ra,	2ee	.
=3	=3	=3	=3
4r	.	2dd	-ra,
4D	Se	.	.
4A	par-	2r	.
4F	-lo, a-	.	.
4G	-cre-	1r	.
4A	-sco	.	.
2G	l'i-	.	.
=4	=4	=4	=4
4C	-ira,	4r	.
2C	Don-	2ee	Don-
4C	-na	4ee	-na
2C	bel-	2ee	bel-
4G	-l'e	2dd	-l'e
4G	cru-	.	.
=5	=5	=5	=5
2D	-del,	2ff	cru-
1E	che	1ee	-del,
[2F	mi	2dd	cru-
=6	=6	=6	=6
2F]	.	2cc	-del,
2G	mar-	2b	che
[1A	-ti-	2a	mi
.	.	2a	mar-
=7	=7	=7	=7
1A]	.	1a	-ti-
2D	-ra.	4a	-ra.
.	.	4ff	Ma
2r	.	4ee	pur
.	.	4cc	pren-
=8	=8	=8	=8
1r	.	4ff	-do
.	.	4ee	spe-
.	.	8aL	-ran-
.	.	8bJ	.
.	.	8ccL	.
.	.	8aJ	.
4r	.	2b	.
4E	Ma	.	.
4A	pur	2a	-za
[4F	pren-	.	.
=9	=9	=9	=9
8F]	.	0r	.
8F	-do	.	.
4E	spe-	.	.
2G	-ran-	.	.
2C	-za	.	.
2c	Che	.	.
=10	=10	=10	=10
4B-X	l'hu-	2r	.
4B-i	-mil-	.	.
2A	-tà,	2ee	Che
2r	.	2ff	l'hu-
2A	Che	2ee	-mil-
=11	=11	=11	=11
2D	l'hu-	2dd	-tà
2C#X	-mil-	1a	vi
2D	-tà	.	.
2AA	vi	4.a	pie-
.	.	8g	.
=12	=12	=12	=12
1BB-X	pie-	2f	.
.	.	2g	.
1AA	-ghi,	1e	-ghi,
=13	=13	=13	=13
2r	.	0r	.
4r	.	.	.
4G	Ché	.	.
4c	nel	.	.
4A	si-	.	.
4B	-len-	.	.
4c	-tio an-	.	.
=14	=14	=14	=14
4G	-cor	0r	.
4B-X	son	.	.
4A	vo-	.	.
4F	-ci e	.	.
1G	prie-	.	.
=15	=15	=15	=15
1D	-ghi,	1r	.
2r	.	1g	an-
2C	an-	.	.
=16	=16	=16	=16
4.F	-cor	4.a	-cor
8G	son	8b	son
4A	vo-	4cc	vo-
4B-X	-ci e	4dd	-ci e
1A	prie-	4ee	prie-
.	.	2dd	.
.	.	4cc#X	.
=17	=17	=17	=17
1D	-ghi.	1dd	-ghi.
1r	.	2r	.
.	.	2ccnXi	E
=18	=18	=18	=18
4r	.	2ff	pre-
4D	E	.	.
4A	pre-	2ee	-g'a-
4A	-g'a-	.	.
4B-X	-mor	2dd	-mor
4B-i	che	.	.
2A	spie-	2cc	che
=19	=19	=19	=19
2G	-ghi,	2dd	spie-
4r	.	2ee	-ghi,
4c	E	.	.
4A	pre-	1r	.
4d	-g'a-	.	.
2c	-mor	.	.
=20	=20	=20	=20
4r	.	4r	.
4d	che	4ff	che
4.c	spie-	4.ee	spie-
8B	.	8dd	.
8AL	.	8ccL	.
8GJ	.	8bJ	.
4F	.	4.a	.
2E	-ghi,	.	.
.	.	16g#XL	.
.	.	16f#XJ	.
.	.	4g#X	.
=21	=21	=21	=21
2r	.	2.a	-ghi,
2D	che	.	.
.	.	4dd	E
2.F	spie-	4cc	pre-
.	.	4a	-g'a-
.	.	4a	-mor
4G	.	4b	che
=22	=22	=22	=22
1A	.	4cc#X	spie-
.	.	2dd	.
.	.	4cc#X	.
2D	-ghi	2dd	-ghi
2d	Nel	2dd	Nel
=23	=23	=23	=23
2B	mio	2dd	mio
4c	do-	4ee	do-
2d	-glio-	2ff	-glio-
4A	-so a-	4ee	-so a-
2B-X	-spet-	2dd	-spet-
=24	=24	=24	=24
2A	-to	2cc#X	-to
2r	.	4r	.
.	.	4ccnXi	Con
1r	.	2b	let-
.	.	2a	-tre
=25	=25	=25	=25
4r	.	2.a	di
4A	Con	.	.
4.E	let-	.	.
.	.	4g#X	pie-
8E	-tre	.	.
4F	di	4a	-tà,
4C	pie-	4ee	Con
2G	-tà	2dd	let-
=26	=26	=26	=26
1r	.	2cc	-tre
.	.	2b	di
4r	.	2a	pie-
2A	l'oc-	.	.
.	.	2ee	-tà
[4E	-cul-	.	.
=27	=27	=27	=27
8E]L	.	4b	l'oc-
8FJ	.	.	.
2G	.	2b	-cul-
4F	-to af-	4ee	-to af-
1E	-fet-	1ee	-fet-
=28	=28	=28	=28
0AA;l	-to.	0cc#X;l	-to.
==	==	==	==
*-	*-	*-	*-
!!!system-decoration: [*]
!!!RDF**kern: i = editorial accidental
!!!RDF**kern: l = terminal long
!!!ENC: Emiliano Ricciardi
!!!END: 2019/08/08
!!!EED: Ricciardi, Emiliano
!!!EEV: 2019/08/08
!!!YEC: Copyright 2018 Emiliano Ricciardi, All Rights Reserved
!!!ONB: Translated from MusicXML on 2019/08/08 and edited by Craig Stuart Sapp
!!@@BEGIN:	VERSEDATA
!!@SOLERTI:	166
!!@CATALOGNUM:	Trm0166
!!@LAST_MODIFIED: 2020/07/12
!!@TITLE:		Se taccio, il duol s'avanza
!!@GENRE:		madrigale
!!@MANUSRC:	Ts<sub>2</sub>, V<sub>13/TS2</sub>
!!@PRINTSRC:	11, 12, 13, 22, 23, 26, 31, 35, 69, 93, 141, 145, 166, 169
!!@@BEGIN:	VERSES
!!@ABOUTIT:	Nel medesimo soggetto (i.e., "Dice che la signora Laura desiderando ch'egli celi l'amor suo desidera cosa impossibile." Rime 164-165)
!!@ABOUTEN:	On the same subject (i.e., "He says that lady Laura, in wishing that he hide his love, wishes for something impossible." Rime 164-165)
!!@EDITOR:	Solerti, Angelo
!!@EDITION_TITLE: Le Rime di Torquato Tasso
!!@EDITION_LOC:	Bologna
!!@EDITION_PUB:	Romagnoli-Dall’Acqua
!!@EDITION_DATE:  1898-1902
!!@EDITION_VOL:	2
!!@EDITION_PAGE:  248
!!@TRANSLATOR:	Emiliano Ricciardi and Amyrose McCue Gill
!!@VERSE:
!!	Se taccio, il duol s'avanza;
!!	Se parlo, accresco l'ira,
!!	Donna bella e crudel, che mi martira.
!!	Ma prendo al fin speranza
!!	Che l'umiltà vi pieghi,
!!	Ché nel silenzio ancor son voci e prieghi.
!!	E prego Amor che spieghi
!!	Nel mio doglioso aspetto
!!	Con lettre di pietà l'occulto affetto.
!!@TVERSE:
!!	If I am silent, the pain advances;
!!	If I speak, I increase the anger,
!!	Beautiful and cruel woman who torments me.
!!	But in the end I take hope
!!	That humility might persuade you,
!!	For in my silence there are still words and prayers.
!!	And I beg Love that he display
!!	In my doleful appearance,
!!	With letters of pity, my concealed affection.
!!@@END:		VERSES
!!@OTHER_CRIT_ED:   None
!!@ATTRIBUTION_ABOUT:	Secure
!!		<br>
!!		Among other sources (see Literary Sources), his poem survives—with Tasso's autograph annotations appearing alongside it—in a copy of the edition, <i>Rime et prose del Signor Torquato Tasso. Parte terza. Novamente poste in luce</i>
!!(Venice: Giulio Vasalini, 1583)
!!@DATING:
!!@DEDICATEE:	Peperara, Laura ?
!!@COMMENTARY:
!!@@END:		VERSEDATA
!!@@BEGIN:	SETTING
!!@CATALOGNUM:	Trm0166i
!!@RIMETITLE:	Se taccio, il duol s'avanza
!!@SOLERTI:	166
!!@COMPOSER:	Il Verso, Antonio
!!@PRINCEPSTITLE:	Madrigali a cinque voci. Libro quarto
!!@PRINCEPSLOC:	Venetia
!!@NORMLOC:	Venice
!!@NORMPUB:	Amadino
!!@NORMPUBSHORT:	Amadino
!!@PRINCEPSPUB:	Amadino
!!@PRINCEPSYEAR:	1600
!!@PRINCEPSRISM:	I 8
!!@REPRINTS:	
!!@OVOICES:	5
!!@EXTANTVOICES:	2
!!@PARTBOOKS:	
!!@EXTPARTBOOKS:	
!!@OCLEFS:	G2,F3
!!@OMENSURATION:	C
!!@OKEYSIG:	-
!!@FINAL:	A
!!@TIMPEDITOR:	Ricciardi, Emiliano
!!@NOTE:		
!!@@END:		SETTING
